; generated by PrusaSlicer 2.1.0+win64 on 2019-10-22 at 05:49:52 UTC

; 

; external perimeters extrusion width = 0.45mm
; perimeters extrusion width = 0.45mm
; infill extrusion width = 0.45mm
; solid infill extrusion width = 0.45mm
; top infill extrusion width = 0.40mm
; first layer extrusion width = 0.42mm

M73 P0 R9
M73 Q0 S9
M201 X1000 Y1000 Z1000 E5000 ; sets maximum accelerations, mm/sec^2
M203 X200 Y200 Z12 E120 ; sets maximum feedrates, mm/sec
M204 P1250 R1250 T1250 ; sets acceleration (P, T) and retract acceleration (R), mm/sec^2
M205 X8.00 Y8.00 Z0.40 E1.50 ; sets the jerk limits, mm/sec
M205 S0 T0 ; sets the minimum extruding and travel feed rate, mm/sec
M107
M862.3 P "MK3" ; printer model check
M862.1 P0.4 ; nozzle diameter check
M115 U3.8.0 ; tell printer latest fw version
G90 ; use absolute coordinates
M83 ; extruder relative mode
M104 S215 ; set extruder temp
M140 S60 ; set bed temp
M190 S60 ; wait for bed temp
M109 S215 ; wait for extruder temp
G28 W ; home all without mesh bed level
G80 ; mesh bed leveling
G1 Y-3.0 F1000.0 ; go outside print area
G92 E0.0
G1 X60.0 E9.0 F1000.0 ; intro line
M73 Q0 S8
M73 P0 R8
G1 X100.0 E12.5 F1000.0 ; intro line
G92 E0.0
M221 S95
G21 ; set units to millimeters
G90 ; use absolute coordinates
M83 ; use relative distances for extrusion
M900 K30 ; Filament gcode
;BEFORE_LAYER_CHANGE
G92 E0.0
;0.2


G1 E-0.80000 F2100.00000
G1 Z0.600 F10800.000
;AFTER_LAYER_CHANGE
;0.2
G1 X118.062 Y93.061
G1 Z0.200
G1 E0.80000 F2100.00000
M204 S1000
G1 F1200
G1 X118.390 Y92.471 E0.02116
G1 X118.860 Y91.987 E0.02116
G1 X119.440 Y91.642 E0.02116
G1 X120.089 Y91.460 E0.02116
G1 X129.554 Y91.434 E0.29675
G1 X130.474 Y91.607 E0.02936
G1 X131.272 Y92.098 E0.02936
G1 X131.840 Y92.843 E0.02936
G1 X132.103 Y93.742 E0.02936
G1 X132.115 Y113.527 E0.62037
G1 X132.055 Y114.097 E0.01797
G1 X131.890 Y114.648 E0.01804
G1 X131.510 Y115.328 E0.02442
G1 X130.947 Y115.905 E0.02527
G1 X130.261 Y116.314 E0.02504
G1 X129.414 Y116.538 E0.02747
G1 X120.839 Y116.557 E0.26888
G1 X119.784 Y116.333 E0.03380
G1 X119.013 Y115.871 E0.02819
G1 X118.467 Y115.296 E0.02485
G1 X118.053 Y114.490 E0.02842
G1 X117.891 Y113.689 E0.02564
G1 X117.884 Y93.980 E0.61794
G1 X118.051 Y93.120 E0.02748
G1 X118.417 Y93.191 F10800.000
G1 F1200
G1 X118.703 Y92.682 E0.01831
G1 X119.113 Y92.267 E0.01828
G1 X119.618 Y91.976 E0.01828
G1 X120.182 Y91.828 E0.01828
G1 X129.554 Y91.811 E0.29385
G1 X130.346 Y91.961 E0.02529
G1 X131.031 Y92.388 E0.02529
G1 X131.514 Y93.034 E0.02529
G1 X131.730 Y93.812 E0.02529
G1 X131.738 Y113.522 E0.61799
G1 X131.535 Y114.521 E0.03198
G1 X131.201 Y115.111 E0.02124
G1 X130.701 Y115.619 E0.02235
G1 X130.100 Y115.972 E0.02187
G1 X129.334 Y116.169 E0.02479
G1 X121.042 Y116.184 E0.25997
G1 X120.498 Y116.145 E0.01712
G1 X119.912 Y115.978 E0.01911
G1 X119.235 Y115.566 E0.02484
G1 X118.764 Y115.063 E0.02159
G1 X118.402 Y114.348 E0.02514
G1 X118.266 Y113.645 E0.02244
G1 X118.262 Y93.985 E0.61642
G1 X118.405 Y93.250 E0.02349
G1 F8640
G1 X118.703 Y92.682 E-0.14806
G1 X119.113 Y92.267 E-0.13462
G1 X119.618 Y91.976 E-0.13462
G1 X120.182 Y91.828 E-0.13462
G1 X121.083 Y91.826 E-0.20806
G1 E-0.04000 F2100.00000
G1 Z0.800 F10800.000
G1 X123.088 Y94.887
G1 Z0.200
G1 E0.80000 F2100.00000
G1 F1200
G1 X126.913 Y94.887 E0.11990
G1 X126.913 Y113.413 E0.58086
G1 X123.088 Y113.413 E0.11990
G1 X123.088 Y94.947 E0.57898
G1 X122.711 Y94.510 F10800.000
G1 F1200
G1 X127.290 Y94.510 E0.14355
G1 X127.290 Y113.790 E0.60451
G1 X122.711 Y113.790 E0.14355
G1 X122.711 Y94.570 E0.60263
G1 X123.072 Y94.683 F10800.000
G1 F8640
G1 X126.002 Y94.527 E-0.76000
G1 E-0.04000 F2100.00000
G1 Z0.800 F10800.000
G1 X126.799 Y95.766
G1 Z0.200
G1 E0.80000 F2100.00000
G1 F1200
G1 X126.203 Y95.170 E0.02658
G1 X125.667 Y95.170 E0.01689
G1 X126.630 Y96.133 E0.04291
G1 X126.630 Y96.669 E0.01689
G1 X125.131 Y95.170 E0.06679
G1 X124.595 Y95.170 E0.01689
G1 X126.630 Y97.205 E0.09067
G1 X126.630 Y97.740 E0.01689
G1 X124.059 Y95.170 E0.11455
G1 X123.523 Y95.170 E0.01689
G1 X126.630 Y98.276 E0.13843
G1 X126.630 Y98.812 E0.01689
G1 X123.371 Y95.554 E0.14521
G1 X123.371 Y96.090 E0.01689
G1 X126.630 Y99.348 E0.14521
G1 X126.630 Y99.884 E0.01689
G1 X123.371 Y96.626 E0.14521
G1 X123.371 Y97.161 E0.01689
G1 X126.630 Y100.420 E0.14521
G1 X126.630 Y100.956 E0.01689
G1 X123.371 Y97.697 E0.14521
G1 X123.371 Y98.233 E0.01689
G1 X126.630 Y101.492 E0.14521
G1 X126.630 Y102.028 E0.01689
G1 X123.371 Y98.769 E0.14521
G1 X123.371 Y99.305 E0.01689
G1 X126.630 Y102.564 E0.14521
G1 X126.630 Y103.100 E0.01689
G1 X123.371 Y99.841 E0.14521
G1 X123.371 Y100.377 E0.01689
G1 X126.630 Y103.636 E0.14521
G1 X126.630 Y104.172 E0.01689
G1 X123.371 Y100.913 E0.14521
G1 X123.371 Y101.449 E0.01689
G1 X126.630 Y104.707 E0.14521
G1 X126.630 Y105.243 E0.01689
G1 X123.371 Y101.985 E0.14521
G1 X123.371 Y102.521 E0.01689
G1 X126.630 Y105.779 E0.14521
G1 X126.630 Y106.315 E0.01689
G1 X123.371 Y103.057 E0.14521
G1 X123.371 Y103.593 E0.01689
G1 X126.630 Y106.851 E0.14521
G1 X126.630 Y107.387 E0.01689
G1 X123.371 Y104.129 E0.14521
G1 X123.371 Y104.664 E0.01689
G1 X126.630 Y107.923 E0.14521
G1 X126.630 Y108.459 E0.01689
G1 X123.371 Y105.200 E0.14521
G1 X123.371 Y105.736 E0.01689
G1 X126.630 Y108.995 E0.14521
G1 X126.630 Y109.531 E0.01689
G1 X123.371 Y106.272 E0.14521
G1 X123.371 Y106.808 E0.01689
G1 X126.630 Y110.067 E0.14521
G1 X126.630 Y110.603 E0.01689
G1 X123.371 Y107.344 E0.14521
G1 X123.371 Y107.880 E0.01689
G1 X126.630 Y111.139 E0.14521
G1 X126.630 Y111.675 E0.01689
G1 X123.371 Y108.416 E0.14521
G1 X123.371 Y108.952 E0.01689
G1 X126.630 Y112.210 E0.14521
G1 X126.630 Y112.746 E0.01689
G1 X123.371 Y109.488 E0.14521
G1 X123.371 Y110.024 E0.01689
G1 X126.478 Y113.130 E0.13843
G1 X125.942 Y113.130 E0.01689
G1 X123.371 Y110.560 E0.11455
G1 X123.371 Y111.096 E0.01689
G1 X125.406 Y113.130 E0.09067
G1 X124.870 Y113.130 E0.01689
G1 X123.371 Y111.631 E0.06678
G1 X123.371 Y112.167 E0.01689
G1 X124.334 Y113.130 E0.04290
G1 X123.798 Y113.130 E0.01689
G1 X123.201 Y112.534 E0.02658
G1 F8640
G1 X123.798 Y113.130 E-0.19477
G1 X124.334 Y113.130 E-0.12375
G1 X123.371 Y112.167 E-0.31437
G1 X123.371 Y111.631 E-0.12375
G1 X123.381 Y111.642 E-0.00336
G1 E-0.04000 F2100.00000
G1 Z0.800 F10800.000
G1 X121.092 Y113.407
G1 Z0.200
G1 E0.80000 F2100.00000
G1 F1200
G1 X121.076 Y113.407 E0.00048
G1 X121.066 Y94.887 E0.58067
G1 X121.092 Y94.887 E0.00080
G1 X121.092 Y113.347 E0.57879
G1 X121.469 Y113.788 F10800.000
G1 F1200
G1 X120.922 Y113.782 E0.01715
G1 X120.823 Y113.755 E0.00320
G1 X120.723 Y113.671 E0.00411
G1 X120.699 Y113.620 E0.00176
G1 X120.689 Y94.510 E0.59917
G1 X121.469 Y94.510 E0.02445
G1 X121.469 Y113.728 E0.60256
G1 X121.121 Y113.590 F10800.000
G1 F8640
G1 X120.922 Y113.782 E-0.12694
G1 X120.823 Y113.755 E-0.02357
G1 X120.723 Y113.671 E-0.03025
G1 X120.699 Y113.620 E-0.01299
G1 X120.698 Y111.167 E-0.56624
G1 E-0.04000 F2100.00000
G1 Z0.800 F10800.000
G1 X128.907 Y113.410
G1 Z0.200
G1 E0.80000 F2100.00000
G1 F1200
G1 X128.907 Y94.887 E0.58079
G1 X128.931 Y94.887 E0.00075
G1 X128.930 Y113.373 E0.57960
G1 X129.307 Y113.617 F10800.000
G1 F1200
G1 X129.245 Y113.712 E0.00355
G1 X129.190 Y113.750 E0.00211
G1 X129.037 Y113.787 E0.00493
G1 X128.530 Y113.789 E0.01589
G1 X128.530 Y94.510 E0.60448
G1 X129.308 Y94.510 E0.02439
G1 X129.307 Y113.557 E0.59720
G1 X129.195 Y113.634 F10800.000
M106 S255
;BEFORE_LAYER_CHANGE
G92 E0.0
;0.35


G1 F8640
G1 X129.245 Y113.712 E-0.03849
G1 X129.190 Y113.750 E-0.01555
G1 X129.037 Y113.787 E-0.03629
G1 X128.530 Y113.789 E-0.11700
G1 X128.530 Y111.396 E-0.55267
G1 E-0.04000 F2100.00000
G1 Z0.800 F10800.000
;AFTER_LAYER_CHANGE
;0.35
G1 X130.474 Y91.607
G1 Z0.350
G1 E0.80000 F2100.00000
G1 F1307
G1 X131.272 Y92.098 E0.02265
G1 X131.840 Y92.843 E0.02265
G1 X132.103 Y93.742 E0.02265
G1 X132.115 Y113.527 E0.47852
G1 X132.055 Y114.097 E0.01386
G1 X131.890 Y114.648 E0.01391
G1 X131.510 Y115.328 E0.01883
G1 X130.947 Y115.905 E0.01949
G1 X130.261 Y116.314 E0.01932
G1 X129.414 Y116.538 E0.02119
G1 X120.839 Y116.557 E0.20740
G1 X119.784 Y116.333 E0.02607
G1 X119.013 Y115.871 E0.02174
G1 X118.467 Y115.296 E0.01917
G1 X118.053 Y114.490 E0.02192
G1 X117.891 Y113.689 E0.01977
G1 X117.884 Y93.980 E0.47665
G1 X118.062 Y93.061 E0.02265
G1 X118.390 Y92.471 E0.01632
G1 X118.860 Y91.987 E0.01632
G1 X119.440 Y91.642 E0.01632
G1 X120.089 Y91.460 E0.01632
G1 X129.554 Y91.434 E0.22890
G1 X130.416 Y91.596 E0.02120
G1 F8640
G1 X131.272 Y92.098 E-0.22923
G1 X131.840 Y92.843 E-0.21625
G1 X132.103 Y93.742 E-0.21625
G1 X132.103 Y94.167 E-0.09827
G1 E-0.04000 F2100.00000
G1 Z0.950 F10800.000
G1 X126.623 Y94.768
G1 Z0.350
G1 E0.80000 F2100.00000
M204 S800
G1 F1307
G1 X126.623 Y113.357 E0.48436
G1 X123.377 Y113.357 E0.08457
G1 X123.377 Y94.768 E0.48436
G1 X126.563 Y94.768 E0.08301
M204 S1000
G1 F8640
G1 X126.574 Y98.059 E-0.76000
G1 E-0.04000 F2100.00000
G1 Z0.950 F10800.000
G1 X127.041 Y113.775
G1 Z0.350
G1 E0.80000 F2100.00000
M204 S800
G1 F1307
G1 X122.959 Y113.775 E0.10635
G1 X122.959 Y94.350 E0.50613
G1 X127.041 Y94.350 E0.10635
G1 X127.041 Y113.715 E0.50457
M204 S1000
G1 X126.681 Y113.599 F10800.000
G1 F8640
G1 X123.750 Y113.763 E-0.76000
G1 E-0.04000 F2100.00000
G1 Z0.950 F10800.000
G1 X125.647 Y113.232
G1 Z0.350
G1 E0.80000 F2100.00000
M204 S1250
G1 F1307
G1 X126.310 Y112.569 E0.02459
G1 X126.310 Y111.974 E0.01561
G1 X125.240 Y113.044 E0.03968
G1 X124.645 Y113.044 E0.01561
G1 X126.310 Y111.379 E0.06176
G1 X126.310 Y110.784 E0.01561
G1 X124.050 Y113.044 E0.08383
G1 X123.690 Y113.044 E0.00944
G1 X123.690 Y112.809 E0.00617
G1 X126.310 Y110.189 E0.09717
G1 X126.310 Y109.595 E0.01561
G1 X123.690 Y112.214 E0.09717
G1 X123.690 Y111.619 E0.01561
G1 X126.310 Y109.000 E0.09717
G1 X126.310 Y108.405 E0.01561
G1 X123.690 Y111.024 E0.09717
G1 X123.690 Y110.429 E0.01561
G1 X126.310 Y107.810 E0.09717
G1 X126.310 Y107.215 E0.01561
G1 X123.690 Y109.834 E0.09717
G1 X123.690 Y109.239 E0.01561
G1 X126.310 Y106.620 E0.09717
G1 X126.310 Y106.025 E0.01561
G1 X123.690 Y108.644 E0.09717
G1 X123.690 Y108.049 E0.01561
G1 X126.310 Y105.430 E0.09717
G1 X126.310 Y104.835 E0.01561
G1 X123.690 Y107.454 E0.09717
G1 X123.690 Y106.859 E0.01561
G1 X126.310 Y104.240 E0.09717
G1 X126.310 Y103.645 E0.01561
G1 X123.690 Y106.264 E0.09717
G1 X123.690 Y105.669 E0.01561
G1 X126.310 Y103.050 E0.09717
G1 X126.310 Y102.455 E0.01561
G1 X123.690 Y105.075 E0.09717
G1 X123.690 Y104.480 E0.01561
G1 X126.310 Y101.860 E0.09717
G1 X126.310 Y101.266 E0.01561
G1 X123.690 Y103.885 E0.09717
G1 X123.690 Y103.290 E0.01561
G1 X126.310 Y100.671 E0.09717
G1 X126.310 Y100.076 E0.01561
G1 X123.690 Y102.695 E0.09717
G1 X123.690 Y102.100 E0.01561
G1 X126.310 Y99.481 E0.09717
G1 X126.310 Y98.886 E0.01561
G1 X123.690 Y101.505 E0.09717
G1 X123.690 Y100.910 E0.01561
G1 X126.310 Y98.291 E0.09717
G1 X126.310 Y97.696 E0.01561
G1 X123.690 Y100.315 E0.09717
G1 X123.690 Y99.720 E0.01561
G1 X126.310 Y97.101 E0.09717
G1 X126.310 Y96.506 E0.01561
G1 X123.690 Y99.125 E0.09717
G1 X123.690 Y98.530 E0.01561
G1 X126.310 Y95.911 E0.09717
G1 X126.310 Y95.316 E0.01561
G1 X123.690 Y97.935 E0.09717
G1 X123.690 Y97.340 E0.01561
G1 X125.950 Y95.081 E0.08382
G1 X125.355 Y95.081 E0.01561
G1 X123.690 Y96.746 E0.06175
G1 X123.690 Y96.151 E0.01561
G1 X124.760 Y95.081 E0.03968
G1 X124.165 Y95.081 E0.01561
G1 X123.502 Y95.744 E0.02458
M204 S1000
G1 F8640
G1 X124.165 Y95.081 E-0.21635
G1 X124.760 Y95.081 E-0.13737
G1 X123.690 Y96.151 E-0.34923
G1 X123.690 Y96.398 E-0.05705
G1 E-0.04000 F2100.00000
G1 Z0.950 F10800.000
G1 X129.290 Y113.626
G1 Z0.350
G1 E0.80000 F2100.00000
M204 S800
G1 F1307
G1 X129.237 Y113.699 E0.00234
G1 X129.183 Y113.736 E0.00171
G1 X129.056 Y113.767 E0.00341
G1 X128.779 Y113.771 E0.00721
G1 X128.779 Y94.350 E0.50604
G1 X129.325 Y94.350 E0.01422
G1 X129.325 Y113.474 E0.49829
G1 X129.304 Y113.568 E0.00251
M204 S1000
G1 X129.201 Y113.636 F10800.000
G1 X128.996 Y113.559
G1 F1307
G1 X129.046 Y113.495 E0.00065
G1 X129.052 Y113.443 E0.00041
G1 X129.052 Y94.559 E0.15064
G1 F8640
G1 X129.052 Y97.850 E-0.76000
G1 E-0.04000 F2100.00000
G1 Z0.950 F10800.000
G1 X121.221 Y113.771
G1 Z0.350
G1 E0.80000 F2100.00000
M204 S800
G1 F1307
G1 X120.924 Y113.767 E0.00773
G1 X120.831 Y113.741 E0.00253
G1 X120.734 Y113.660 E0.00329
G1 X120.685 Y113.555 E0.00302
G1 X120.675 Y113.485 E0.00183
G1 X120.675 Y94.350 E0.49858
G1 X121.221 Y94.350 E0.01422
G1 X121.221 Y113.711 E0.50447
M204 S1000
G1 X120.964 Y113.623 F10800.000
G1 X121.000 Y113.559
G1 F1307
G1 X120.948 Y113.466 E0.00073
G1 X120.948 Y94.559 E0.12951
;BEFORE_LAYER_CHANGE
G92 E0.0
;0.5


G1 F8640
G1 X120.948 Y97.850 E-0.76000
G1 E-0.04000 F2100.00000
G1 Z0.950 F10800.000
;AFTER_LAYER_CHANGE
;0.5
G1 X118.062 Y93.061
G1 Z0.500
G1 E0.80000 F2100.00000
G1 F1151
G1 X118.390 Y92.471 E0.01632
G1 X118.860 Y91.987 E0.01632
G1 X119.440 Y91.642 E0.01632
G1 X120.089 Y91.460 E0.01632
G1 X129.554 Y91.434 E0.22890
G1 X130.474 Y91.607 E0.02265
G1 X131.272 Y92.098 E0.02265
G1 X131.840 Y92.843 E0.02265
G1 X132.103 Y93.742 E0.02265
G1 X132.115 Y113.527 E0.47852
G1 X132.055 Y114.097 E0.01386
G1 X131.890 Y114.648 E0.01391
G1 X131.510 Y115.328 E0.01883
G1 X130.947 Y115.905 E0.01949
G1 X130.261 Y116.314 E0.01932
G1 X129.414 Y116.538 E0.02119
G1 X120.839 Y116.557 E0.20740
M73 Q12 S7
G1 X119.784 Y116.333 E0.02607
G1 X119.013 Y115.871 E0.02174
M73 P12 R7
G1 X118.467 Y115.296 E0.01917
G1 X118.053 Y114.490 E0.02192
G1 X117.891 Y113.689 E0.01977
G1 X117.884 Y93.980 E0.47665
G1 X118.051 Y93.120 E0.02120
G1 F8640
G1 X118.390 Y92.471 E-0.16902
G1 X118.860 Y91.987 E-0.15579
G1 X119.440 Y91.642 E-0.15579
G1 X120.089 Y91.460 E-0.15579
G1 X120.625 Y91.458 E-0.12360
G1 E-0.04000 F2100.00000
G1 Z1.100 F10800.000
G1 X123.493 Y94.643
G1 Z0.500
G1 E0.80000 F2100.00000
M204 S800
G1 F1151
G1 X126.507 Y94.643 E0.07851
G1 X126.507 Y113.357 E0.48762
G1 X123.493 Y113.357 E0.07851
G1 X123.493 Y94.703 E0.48605
M204 S1000
G1 F8640
G1 X126.507 Y94.643 E-0.69585
G1 X126.507 Y94.921 E-0.06415
G1 E-0.04000 F2100.00000
G1 Z1.100 F10800.000
G1 X126.924 Y113.775
G1 Z0.500
G1 E0.80000 F2100.00000
M204 S800
G1 F1151
G1 X123.076 Y113.775 E0.10028
G1 X123.076 Y94.225 E0.50939
G1 X126.924 Y94.225 E0.10028
G1 X126.924 Y113.715 E0.50783
M204 S1000
G1 X126.566 Y113.598 F10800.000
G1 F8640
G1 X123.633 Y113.766 E-0.76000
G1 E-0.04000 F2100.00000
G1 Z1.100 F10800.000
G1 X124.465 Y113.232
G1 Z0.500
G1 E0.80000 F2100.00000
M204 S1250
G1 F1151
G1 X123.807 Y112.574 E0.02429
G1 X123.807 Y111.982 E0.01545
G1 X124.869 Y113.044 E0.03920
G1 X125.461 Y113.044 E0.01545
G1 X123.807 Y111.390 E0.06105
G1 X123.807 Y110.798 E0.01545
G1 X126.053 Y113.044 E0.08290
G1 X126.193 Y113.044 E0.00367
G1 X126.193 Y112.592 E0.01178
G1 X123.807 Y110.206 E0.08809
G1 X123.807 Y109.614 E0.01545
G1 X126.193 Y112.000 E0.08809
G1 X126.193 Y111.409 E0.01545
G1 X123.807 Y109.022 E0.08809
G1 X123.807 Y108.430 E0.01545
G1 X126.193 Y110.817 E0.08809
G1 X126.193 Y110.225 E0.01545
G1 X123.807 Y107.838 E0.08809
G1 X123.807 Y107.246 E0.01545
G1 X126.193 Y109.633 E0.08809
G1 X126.193 Y109.041 E0.01545
G1 X123.807 Y106.654 E0.08809
G1 X123.807 Y106.063 E0.01545
G1 X126.193 Y108.449 E0.08809
G1 X126.193 Y107.857 E0.01545
G1 X123.807 Y105.471 E0.08809
G1 X123.807 Y104.879 E0.01545
G1 X126.193 Y107.265 E0.08809
G1 X126.193 Y106.673 E0.01545
G1 X123.807 Y104.287 E0.08809
G1 X123.807 Y103.695 E0.01545
G1 X126.193 Y106.081 E0.08809
G1 X126.193 Y105.489 E0.01545
G1 X123.807 Y103.103 E0.08809
G1 X123.807 Y102.511 E0.01545
G1 X126.193 Y104.897 E0.08809
G1 X126.193 Y104.305 E0.01545
G1 X123.807 Y101.919 E0.08809
G1 X123.807 Y101.327 E0.01545
G1 X126.193 Y103.713 E0.08809
G1 X126.193 Y103.121 E0.01545
G1 X123.807 Y100.735 E0.08809
G1 X123.807 Y100.143 E0.01545
G1 X126.193 Y102.530 E0.08809
G1 X126.193 Y101.938 E0.01545
G1 X123.807 Y99.551 E0.08809
G1 X123.807 Y98.959 E0.01545
G1 X126.193 Y101.346 E0.08809
G1 X126.193 Y100.754 E0.01545
G1 X123.807 Y98.367 E0.08809
G1 X123.807 Y97.775 E0.01545
G1 X126.193 Y100.162 E0.08809
G1 X126.193 Y99.570 E0.01545
G1 X123.807 Y97.184 E0.08809
G1 X123.807 Y96.592 E0.01545
G1 X126.193 Y98.978 E0.08809
G1 X126.193 Y98.386 E0.01545
