; generated by PrusaSlicer 2.1.0+win64 on 2019-12-13 at 20:35:46 UTC

; 

; external perimeters extrusion width = 0.45mm
; perimeters extrusion width = 0.45mm
; infill extrusion width = 0.45mm
; solid infill extrusion width = 0.45mm
; top infill extrusion width = 0.40mm
; first layer extrusion width = 0.42mm

M73 P0 R9
M73 Q0 S9
M201 X1000 Y1000 Z1000 E5000 ; sets maximum accelerations, mm/sec^2
M203 X200 Y200 Z12 E120 ; sets maximum feedrates, mm/sec
M204 P1250 R1250 T1250 ; sets acceleration (P, T) and retract acceleration (R), mm/sec^2
M205 X8.00 Y8.00 Z0.40 E1.50 ; sets the jerk limits, mm/sec
M205 S0 T0 ; sets the minimum extruding and travel feed rate, mm/sec
M107
M862.3 P "MK3" ; printer model check
M862.1 P0.4 ; nozzle diameter check
M115 U3.8.0 ; tell printer latest fw version
G90 ; use absolute coordinates
M83 ; extruder relative mode
M104 S215 ; set extruder temp
M140 S60 ; set bed temp
M190 S60 ; wait for bed temp
M109 S215 ; wait for extruder temp
G28 W ; home all without mesh bed level
G80 ; mesh bed leveling
G1 Y-3.0 F1000.0 ; go outside print area
G92 E0.0
G1 X60.0 E9.0 F1000.0 ; intro line
M73 Q0 S9
M73 P0 R9
G1 X100.0 E12.5 F1000.0 ; intro line
G92 E0.0
M221 S95
G21 ; set units to millimeters
G90 ; use absolute coordinates
M83 ; use relative distances for extrusion
M900 K30 ; Filament gcode
;BEFORE_LAYER_CHANGE
G92 E0.0
;0.2


G1 E-0.80000 F2100.00000
G1 Z0.600 F10800.000
;AFTER_LAYER_CHANGE
;0.2
G1 X118.058 Y94.072
G1 Z0.200
G1 E0.80000 F2100.00000
M204 S1000
G1 F1200
G1 X118.385 Y93.477 E0.02128
G1 X118.857 Y92.989 E0.02128
G1 X119.436 Y92.643 E0.02116
G1 X120.090 Y92.460 E0.02128
G1 X129.554 Y92.434 E0.29674
G1 X130.471 Y92.605 E0.02924
G1 X131.269 Y93.095 E0.02936
G1 X131.838 Y93.839 E0.02936
G1 X132.102 Y94.738 E0.02936
G1 X132.115 Y114.527 E0.62047
G1 X131.917 Y115.582 E0.03368
G1 X131.546 Y116.280 E0.02477
G1 X130.969 Y116.891 E0.02636
G1 X130.246 Y117.321 E0.02635
G1 X129.517 Y117.528 E0.02376
G1 X120.907 Y117.565 E0.26998
G1 X119.872 Y117.368 E0.03304
G1 X119.129 Y116.965 E0.02651
G1 X118.511 Y116.356 E0.02719
G1 X118.093 Y115.607 E0.02691
G1 X117.895 Y114.746 E0.02770
G1 X117.885 Y94.980 E0.61975
G1 X118.047 Y94.131 E0.02712
G1 X118.413 Y94.202 F10800.000
G1 F1200
G1 X118.699 Y93.688 E0.01843
G1 X119.110 Y93.270 E0.01839
G1 X119.615 Y92.977 E0.01828
G1 X120.178 Y92.828 E0.01828
G1 X129.553 Y92.811 E0.29395
G1 X130.346 Y92.961 E0.02529
G1 X131.031 Y93.388 E0.02529
G1 X131.512 Y94.031 E0.02518
G1 X131.730 Y94.808 E0.02529
G1 X131.738 Y114.521 E0.61809
G1 X131.560 Y115.458 E0.02991
G1 X131.232 Y116.069 E0.02174
G1 X130.715 Y116.611 E0.02348
G1 X130.132 Y116.960 E0.02130
G1 X129.419 Y117.162 E0.02325
G1 X120.914 Y117.188 E0.26669
G1 X119.996 Y117.012 E0.02928
G1 X119.338 Y116.652 E0.02353
G1 X118.806 Y116.120 E0.02359
G1 X118.442 Y115.464 E0.02351
G1 X118.269 Y114.701 E0.02454
G1 X118.262 Y94.985 E0.61817
G1 X118.402 Y94.261 E0.02315
G1 F8640
G1 X118.699 Y93.688 E-0.14893
G1 X119.110 Y93.270 E-0.13546
G1 X119.615 Y92.977 E-0.13462
G1 X120.178 Y92.828 E-0.13462
G1 X121.072 Y92.827 E-0.20636
G1 E-0.04000 F2100.00000
G1 Z0.800 F10800.000
G1 X121.065 Y95.887
G1 Z0.200
G1 E0.80000 F2100.00000
G1 F1200
G1 X128.934 Y95.887 E0.24673
G1 X128.935 Y114.413 E0.58086
G1 X128.330 Y114.413 E0.01896
G1 X127.991 Y114.386 E0.01065
G1 X127.527 Y114.413 E0.01459
G1 X122.480 Y114.413 E0.15823
G1 X122.141 Y114.386 E0.01067
G1 X121.677 Y114.413 E0.01458
G1 X121.066 Y114.413 E0.01915
G1 X121.065 Y95.947 E0.57898
G1 X120.688 Y95.510 F10800.000
G1 F1200
G1 X129.311 Y95.510 E0.27038
G1 X129.312 Y114.622 E0.59924
G1 X129.224 Y114.730 E0.00437
G1 X129.139 Y114.773 E0.00298
G1 X129.034 Y114.790 E0.00333
G1 X128.315 Y114.790 E0.02255
G1 X127.987 Y114.764 E0.01030
G1 X127.538 Y114.790 E0.01412
G1 X122.465 Y114.790 E0.15905
G1 X122.137 Y114.764 E0.01032
G1 X121.688 Y114.790 E0.01411
G1 X120.975 Y114.790 E0.02234
G1 X120.817 Y114.752 E0.00509
G1 X120.733 Y114.685 E0.00336
G1 X120.689 Y114.607 E0.00281
G1 X120.688 Y95.570 E0.59690
G1 X121.034 Y95.710 F10800.000
G1 F8640
G1 X123.979 Y95.547 E-0.76000
G1 E-0.04000 F2100.00000
G1 Z0.800 F10800.000
G1 X128.821 Y96.776
G1 Z0.200
G1 E0.80000 F2100.00000
G1 F1200
G1 X128.215 Y96.170 E0.02730
G1 X127.673 Y96.170 E0.01727
G1 X128.651 Y97.148 E0.04408
G1 X128.651 Y97.690 E0.01727
G1 X127.131 Y96.170 E0.06851
G1 X126.589 Y96.170 E0.01727
G1 X128.651 Y98.232 E0.09294
G1 X128.651 Y98.774 E0.01727
G1 X126.047 Y96.170 E0.11737
G1 X125.505 Y96.170 E0.01727
G1 X128.651 Y99.316 E0.14179
G1 X128.651 Y99.858 E0.01727
G1 X124.963 Y96.170 E0.16622
G1 X124.421 Y96.170 E0.01727
G1 X128.651 Y100.400 E0.19065
G1 X128.651 Y100.942 E0.01727
G1 X123.879 Y96.170 E0.21508
G1 X123.337 Y96.170 E0.01727
G1 X128.651 Y101.484 E0.23951
G1 X128.651 Y102.026 E0.01727
G1 X122.795 Y96.170 E0.26394
G1 X122.253 Y96.170 E0.01727
G1 X128.651 Y102.568 E0.28836
G1 X128.651 Y103.110 E0.01727
G1 X121.711 Y96.170 E0.31279
G1 X121.348 Y96.170 E0.01158
G1 X121.348 Y96.349 E0.00569
G1 X128.651 Y103.652 E0.32917
G1 X128.651 Y104.194 E0.01727
G1 X121.348 Y96.891 E0.32917
G1 X121.348 Y97.433 E0.01727
G1 X128.651 Y104.736 E0.32917
G1 X128.651 Y105.278 E0.01727
G1 X121.348 Y97.975 E0.32917
G1 X121.348 Y98.517 E0.01727
G1 X128.651 Y105.820 E0.32916
G1 X128.651 Y106.363 E0.01727
G1 X121.348 Y99.059 E0.32916
G1 X121.348 Y99.601 E0.01727
G1 X128.651 Y106.905 E0.32916
G1 X128.652 Y107.447 E0.01727
G1 X121.348 Y100.143 E0.32916
G1 X121.348 Y100.685 E0.01727
G1 X128.652 Y107.989 E0.32916
G1 X128.652 Y108.531 E0.01727
G1 X121.348 Y101.227 E0.32916
G1 X121.348 Y101.769 E0.01727
G1 X128.652 Y109.073 E0.32916
G1 X128.652 Y109.615 E0.01727
G1 X121.348 Y102.311 E0.32916
G1 X121.348 Y102.853 E0.01727
G1 X128.652 Y110.157 E0.32916
G1 X128.652 Y110.699 E0.01727
G1 X121.348 Y103.395 E0.32916
G1 X121.348 Y103.937 E0.01727
G1 X128.652 Y111.241 E0.32916
G1 X128.652 Y111.783 E0.01727
G1 X121.348 Y104.479 E0.32916
G1 X121.348 Y105.021 E0.01727
G1 X128.652 Y112.325 E0.32915
G1 X128.652 Y112.867 E0.01727
G1 X121.348 Y105.563 E0.32915
G1 X121.348 Y106.106 E0.01727
G1 X128.652 Y113.409 E0.32915
G1 X128.652 Y113.951 E0.01727
G1 X121.348 Y106.648 E0.32915
G1 X121.348 Y107.190 E0.01727
G1 X128.284 Y114.126 E0.31259
G1 X127.994 Y114.102 E0.00928
G1 X127.734 Y114.118 E0.00830
G1 X121.348 Y107.732 E0.28780
G1 X121.348 Y108.274 E0.01727
G1 X127.205 Y114.130 E0.26394
G1 X126.663 Y114.130 E0.01727
G1 X121.349 Y108.816 E0.23951
G1 X121.349 Y109.358 E0.01727
G1 X126.121 Y114.130 E0.21508
G1 X125.579 Y114.130 E0.01727
G1 X121.349 Y109.900 E0.19065
G1 X121.349 Y110.442 E0.01727
G1 X125.037 Y114.130 E0.16622
G1 X124.495 Y114.130 E0.01727
G1 X121.349 Y110.984 E0.14179
G1 X121.349 Y111.526 E0.01727
G1 X123.953 Y114.130 E0.11736
G1 X123.411 Y114.130 E0.01727
G1 X121.349 Y112.068 E0.09293
G1 X121.349 Y112.610 E0.01727
G1 X122.869 Y114.130 E0.06850
G1 X122.313 Y114.116 E0.01773
G1 X121.349 Y113.152 E0.04343
G1 X121.349 Y113.694 E0.01727
G1 X121.939 Y114.284 E0.02660
M106 S255
;BEFORE_LAYER_CHANGE
G92 E0.0
;0.35


G1 F8640
G1 X121.349 Y113.694 E-0.19271
G1 X121.349 Y113.152 E-0.12516
G1 X122.313 Y114.116 E-0.31470
G1 X122.864 Y114.130 E-0.12743
G1 E-0.04000 F2100.00000
G1 Z0.800 F10800.000
;AFTER_LAYER_CHANGE
;0.35
G1 X119.872 Y117.368
G1 Z0.350
G1 E0.80000 F2100.00000
G1 F1510
G1 X119.129 Y116.965 E0.02044
G1 X118.511 Y116.356 E0.02097
G1 X118.093 Y115.607 E0.02076
G1 X117.895 Y114.746 E0.02136
G1 X117.885 Y94.980 E0.47804
G1 X118.058 Y94.072 E0.02237
G1 X118.385 Y93.477 E0.01641
G1 X118.857 Y92.989 E0.01641
G1 X119.436 Y92.643 E0.01632
G1 X120.090 Y92.460 E0.01641
G1 X129.554 Y92.434 E0.22889
G1 X130.471 Y92.605 E0.02256
G1 X131.269 Y93.095 E0.02265
G1 X131.838 Y93.839 E0.02265
G1 X132.102 Y94.738 E0.02265
G1 X132.115 Y114.527 E0.47860
G1 X131.917 Y115.582 E0.02598
G1 X131.546 Y116.280 E0.01910
G1 X130.969 Y116.891 E0.02033
G1 X130.246 Y117.321 E0.02033
G1 X129.517 Y117.528 E0.01833
G1 X120.907 Y117.565 E0.20824
G1 X119.931 Y117.380 E0.02403
G1 F8640
G1 X119.129 Y116.965 E-0.20843
G1 X118.511 Y116.356 E-0.20023
G1 X118.093 Y115.607 E-0.19819
G1 X117.944 Y114.961 E-0.15315
G1 E-0.04000 F2100.00000
G1 Z0.950 F10800.000
G1 X123.009 Y114.357
G1 Z0.350
G1 E0.80000 F2100.00000
M204 S800
G1 F1510
G1 X123.004 Y95.768 E0.48436
G1 X126.996 Y95.768 E0.10402
G1 X126.992 Y114.357 E0.48436
G1 X123.069 Y114.357 E0.10221
M204 S1000
G1 X122.694 Y114.775 F10800.000
M204 S800
G1 F1500
G1 X122.591 Y114.742 E0.00282
G1 X122.586 Y95.350 E0.50527
G1 X127.414 Y95.350 E0.12580
G1 X127.409 Y114.742 E0.50527
G1 X127.306 Y114.775 E0.00281
G1 X122.754 Y114.775 E0.11861
M204 S1000
G1 X122.660 Y114.672 F10800.000
G1 F8640
G1 X122.591 Y114.742 E-0.03839
G1 X122.590 Y111.617 E-0.72161
G1 E-0.04000 F2100.00000
G1 Z0.950 F10800.000
G1 X128.854 Y114.354
G1 Z0.350
G1 E0.80000 F2100.00000
M204 S800
G1 F1500
G1 X128.854 Y95.768 E0.48426
G1 X128.907 Y95.768 E0.00138
G1 X128.907 Y114.347 E0.48410
M204 S1000
G1 X129.215 Y114.718 F10800.000
M204 S800
G1 F1500
G1 X129.134 Y114.759 E0.00237
G1 X129.035 Y114.775 E0.00263
G1 X128.495 Y114.765 E0.01407
G1 X128.436 Y114.738 E0.00168
G1 X128.436 Y95.350 E0.50517
G1 X129.325 Y95.350 E0.02315
G1 X129.325 Y114.477 E0.49836
G1 X129.289 Y114.629 E0.00407
G1 X129.257 Y114.675 E0.00147
M204 S1000
G1 X129.130 Y114.686 F10800.000
G1 F8640
G1 X129.134 Y114.759 E-0.03437
G1 X129.035 Y114.775 E-0.02327
G1 X128.495 Y114.765 E-0.12470
G1 X128.436 Y114.738 E-0.01485
G1 X128.436 Y112.301 E-0.56281
G1 E-0.04000 F2100.00000
G1 Z0.950 F10800.000
G1 X121.146 Y114.356
G1 Z0.350
G1 E0.80000 F2100.00000
M204 S800
G1 F1500
G1 X121.093 Y114.356 E0.00139
G1 X121.093 Y95.768 E0.48434
G1 X121.146 Y95.768 E0.00139
G1 X121.146 Y114.296 E0.48277
M204 S1000
G1 X121.564 Y114.743 F10800.000
M204 S800
G1 F1500
G1 X121.479 Y114.772 E0.00233
G1 X120.976 Y114.775 E0.01310
G1 X120.816 Y114.736 E0.00430
G1 X120.726 Y114.655 E0.00316
G1 X120.675 Y114.487 E0.00456
G1 X120.675 Y95.350 E0.49864
G1 X121.564 Y95.350 E0.02316
G1 X121.564 Y114.683 E0.50374
M204 S1000
G1 X121.478 Y114.718 F10800.000
G1 F8640
G1 X121.479 Y114.772 E-0.02834
G1 X120.976 Y114.775 E-0.11612
G1 X120.816 Y114.736 E-0.03810
G1 X120.726 Y114.655 E-0.02799
G1 X120.675 Y114.487 E-0.04040
G1 X120.675 Y112.283 E-0.50904
G1 E-0.04000 F2100.00000
G1 Z0.950 F10800.000
G1 X126.010 Y114.232
G1 Z0.350
G1 E0.80000 F2100.00000
M204 S1250
G1 F1510
G1 X126.678 Y113.563 E0.02498
G1 X126.679 Y112.964 E0.01582
G1 X125.599 Y114.044 E0.04033
G1 X125.000 Y114.044 E0.01582
G1 X126.679 Y112.365 E0.06270
G1 X126.679 Y111.766 E0.01582
G1 X124.401 Y114.044 E0.08508
G1 X123.802 Y114.044 E0.01582
G1 X126.679 Y111.167 E0.10745
G1 X126.679 Y110.568 E0.01582
G1 X123.322 Y113.925 E0.12538
G1 X123.322 Y113.326 E0.01581
G1 X126.679 Y109.969 E0.12539
G1 X126.680 Y109.370 E0.01582
G1 X123.322 Y112.727 E0.12540
G1 X123.322 Y112.129 E0.01581
G1 X126.680 Y108.771 E0.12542
G1 X126.680 Y108.172 E0.01582
G1 X123.322 Y111.530 E0.12543
G1 X123.321 Y110.931 E0.01581
G1 X126.680 Y107.573 E0.12544
G1 X126.680 Y106.974 E0.01582
G1 X123.321 Y110.332 E0.12545
G1 X123.321 Y109.734 E0.01581
G1 X126.680 Y106.375 E0.12546
G1 X126.680 Y105.775 E0.01582
G1 X123.321 Y109.135 E0.12547
G1 X123.321 Y108.536 E0.01581
G1 X126.681 Y105.176 E0.12549
G1 X126.681 Y104.577 E0.01582
G1 X123.321 Y107.938 E0.12550
G1 X123.320 Y107.339 E0.01581
G1 X126.681 Y103.978 E0.12551
G1 X126.681 Y103.379 E0.01582
G1 X123.320 Y106.740 E0.12552
G1 X123.320 Y106.141 E0.01581
G1 X126.681 Y102.780 E0.12553
G1 X126.681 Y102.181 E0.01582
G1 X123.320 Y105.543 E0.12554
G1 X123.320 Y104.944 E0.01581
G1 X126.682 Y101.582 E0.12556
G1 X126.682 Y100.983 E0.01582
G1 X123.320 Y104.345 E0.12557
G1 X123.319 Y103.746 E0.01581
G1 X126.682 Y100.384 E0.12558
G1 X126.682 Y99.785 E0.01582
G1 X123.319 Y103.148 E0.12559
G1 X123.319 Y102.549 E0.01581
G1 X126.682 Y99.186 E0.12560
G1 X126.682 Y98.587 E0.01582
G1 X123.319 Y101.950 E0.12561
G1 X123.319 Y101.351 E0.01581
G1 X126.683 Y97.988 E0.12563
G1 X126.683 Y97.389 E0.01582
G1 X123.319 Y100.753 E0.12564
G1 X123.319 Y100.154 E0.01581
G1 X126.683 Y96.790 E0.12565
G1 X126.683 Y96.191 E0.01582
G1 X123.318 Y99.555 E0.12566
G1 X123.318 Y98.957 E0.01581
G1 X126.193 Y96.081 E0.10739
G1 X125.595 Y96.081 E0.01582
G1 X123.318 Y98.358 E0.08502
G1 X123.318 Y97.759 E0.01581
G1 X124.996 Y96.081 E0.06266
G1 X124.397 Y96.081 E0.01582
G1 X123.318 Y97.160 E0.04030
G1 X123.318 Y96.562 E0.01581
G1 X123.986 Y95.893 E0.02496
M204 S1000
;BEFORE_LAYER_CHANGE
G92 E0.0
;0.5


G1 F8640
G1 X123.318 Y96.562 E-0.21824
G1 X123.318 Y97.160 E-0.13825
G1 X124.397 Y96.081 E-0.35236
G1 X124.618 Y96.081 E-0.05116
G1 E-0.04000 F2100.00000
G1 Z0.950 F10800.000
;AFTER_LAYER_CHANGE
;0.5
G1 X130.471 Y92.605
G1 Z0.500
G1 E0.80000 F2100.00000
G1 F1365
G1 X131.269 Y93.095 E0.02265
G1 X131.838 Y93.839 E0.02265
G1 X132.102 Y94.738 E0.02265
G1 X132.115 Y114.527 E0.47860
M73 Q12 S8
M73 P12 R8
G1 X131.917 Y115.582 E0.02598
G1 X131.546 Y116.280 E0.01910
G1 X130.969 Y116.891 E0.02033
G1 X130.246 Y117.321 E0.02033
G1 X129.517 Y117.528 E0.01833
G1 X120.907 Y117.565 E0.20824
G1 X119.872 Y117.368 E0.02548
G1 X119.129 Y116.965 E0.02044
G1 X118.511 Y116.356 E0.02097
G1 X118.093 Y115.607 E0.02076
G1 X117.895 Y114.746 E0.02136
G1 X117.885 Y94.980 E0.47804
G1 X118.058 Y94.072 E0.02237
G1 X118.385 Y93.477 E0.01641
G1 X118.857 Y92.989 E0.01641
G1 X119.436 Y92.643 E0.01632
G1 X120.090 Y92.460 E0.01641
G1 X129.554 Y92.434 E0.22889
G1 X130.412 Y92.594 E0.02110
G1 F8640
G1 X131.269 Y93.095 E-0.22924
G1 X131.838 Y93.839 E-0.21625
G1 X132.102 Y94.738 E-0.21625
G1 X132.102 Y95.163 E-0.09827
G1 E-0.04000 F2100.00000
G1 Z1.100 F10800.000
G1 X126.816 Y95.643
G1 Z0.500
G1 E0.80000 F2100.00000
M204 S800
G1 F1365
G1 X126.813 Y114.357 E0.48762
G1 X123.185 Y114.357 E0.09453
G1 X123.184 Y95.643 E0.48762
G1 X126.756 Y95.643 E0.09307
M204 S1000
G1 F8640
G1 X126.766 Y98.934 E-0.76000
G1 E-0.04000 F2100.00000
G1 Z1.100 F10800.000
G1 X128.617 Y95.274
G1 Z0.500
G1 E0.80000 F2100.00000
M204 S800
G1 F1365
G1 X127.234 Y95.274 E0.03602
G1 X127.231 Y114.764 E0.50781
G1 X127.189 Y114.775 E0.00112
G1 X122.811 Y114.775 E0.11408
G1 X122.767 Y114.762 E0.00121
G1 X122.767 Y95.274 E0.50778
G1 X121.384 Y95.274 E0.03603
G1 X121.384 Y114.754 E0.50757
G1 X120.965 Y114.775 E0.01091
G1 X120.866 Y114.759 E0.00261
G1 X120.741 Y114.676 E0.00392
G1 X120.687 Y114.571 E0.00308
G1 X120.675 Y114.488 E0.00218
G1 X120.675 Y95.225 E0.50190
G1 X129.325 Y95.225 E0.22537
G1 X129.325 Y114.485 E0.50184
G1 X129.310 Y114.578 E0.00245
G1 X129.271 Y114.658 E0.00231
G1 X129.210 Y114.720 E0.00226
G1 X129.134 Y114.759 E0.00223
G1 X129.033 Y114.775 E0.00266
G1 X128.620 Y114.763 E0.01078
G1 X128.617 Y95.334 E0.50624
M204 S1000
G1 X128.614 Y94.874 F10800.000
G1 X128.971 Y95.434
G1 F1365
G1 X128.972 Y114.422 E0.34382
G1 X128.991 Y114.441 E0.00048
G1
G1 X129.010 Y114.459 E0.00041
G1
G1 X129.028 Y114.477 E0.00033
G1
G1 X129.044 Y114.493 E0.00025
G1
G1 X129.077 Y114.554 E0.00058
G1 F8640
G1 X129.044 Y114.493 E-0.01584
G1 E-0.78416 F2100.00000
G1 Z1.100 F10800.000
G1 X123.310 Y113.385
G1 Z0.500
G1 E0.80000 F2100.00000
M204 S1250
G1 F1365
G1 X123.969 Y114.044 E0.02436
G1 X124.562 Y114.044 E0.01549
G1 X123.498 Y112.980 E0.03932
G1 X123.498 Y112.387 E0.01549
G1 X125.155 Y114.044 E0.06122
G1 X125.747 Y114.044 E0.01549
G1 X123.498 Y111.795 E0.08313
G1 X123.498 Y111.202 E0.01549
G1 X126.340 Y114.044 E0.10503
G1 X126.500 Y114.044 E0.00417
G1 X126.500 Y113.611 E0.01131
G1 X123.498 Y110.609 E0.11093
G1 X123.498 Y110.017 E0.01549
G1 X126.500 Y113.018 E0.11094
G1 X126.500 Y112.426 E0.01549
G1 X123.498 Y109.424 E0.11094
G1 X123.498 Y108.831 E0.01549
G1 X126.500 Y111.833 E0.11095
G1 X126.500 Y111.241 E0.01549
G1 X123.498 Y108.239 E0.11095
G1 X123.498 Y107.646 E0.01549
G1 X126.500 Y110.648 E0.11096
G1 X126.500 Y110.056 E0.01549
G1 X123.498 Y107.053 E0.11096
G1 X123.498 Y106.461 E0.01549
G1 X126.500 Y109.463 E0.11097
G1 X126.501 Y108.871 E0.01549
G1 X123.498 Y105.868 E0.11097
G1 X123.498 Y105.275 E0.01549
G1 X126.501 Y108.278 E0.11097
G1 X126.501 Y107.686 E0.01549
G1 X123.498 Y104.683 E0.11098
G1 X123.498 Y104.090 E0.01549
